X:17457
T:Tickle her Leg (with the Barley Straw).
M:6/8
L:1/8
C:Trad.
R:jig
K:Bm
DFF FEF|D2B, B,CD|B,EE EFD|~C3 A,B,C|~D3 ~E3|~F3 d2d|BAF FEF|1 D2B, B,2C
:|2 D2B, FdB:|
d2A2F FdB|A2F FdB|A2F FEF|D2B, B,dB|A2F FdB|A2F FdB|dcB cBA|~B3 B2F2
c||
dcB cBA|B2A FBc|dcB cBA|~B3 B2C|dcB cBA|B2A F2E|F^GA B2c|B3 d3||
